X: 5735
T: Cahan O'Hara
R: waltz
M: 3/4
K: Gmajor
GE|D2E2 (3GAB|AG E2 GE|D2E2 (3GAB|A4 GA|
B2d2 (3efg|ed cB AG|G2B2d2|e4 dc|
B2d2 (3efg|ed cB AG|G2 Bd eg|g4f2|
ed B2 AG|AG E2 GE|D2 (3GAB AG|G4||

